X:1
T:James Gibb editions
T:Et la la la  - Ninot le Petit
T:#
%%score [ 1 2 3 4 ]
L:1/8
Q:1/4=130
M:4/4
K:C
V:1 treble nm="Soprano" snm="S"
V:2 treble nm="Alto" snm="A"
V:3 treble-8 nm="Tenor" snm="T"
V:4 bass nm="Bass" snm="B"
V:1
"^Ninot le Petit\n(early 1500s)""^Et la la la" z4 z2 G2 | c3 B A2 A2 | G3 F E2 G2 | F3 E D2 C2- | %4
w: Et|la la la la|la la la, Fai-|tes- lui bon- ne|
 C2 B,2 C4 | z8 |[M:4/4] z8 | z8 | c2 c2 B2 B2 | c2 c2 G3 B | A2 A2 G4 | z4 z2 G2 | c2 c2 B2 B2 | %13
w: * chè- re.||||Me le- vai par|un ma- tin, par|un ma- tin,|La|fraî- che ma- ti-|
 c2 BA G4 | c3 B A2 A2 | G3 F E2 G2 | F3 (E D2 C2) | (E3 F) G4 | c3 B A2 A2 | G3 F E2 G2 | %20
w: né- e, M'en en-|trai en nos jar-|dins Pour cueul- lir|gi- ro\- * *|flé\- * e.|La la la la|la la la, Fai-|
 F3 E D2 C2- | C2 B,2 C2 G2 | F3 E D2 C2- | C2 B,2 C4 | z4 c2 c2 | B2 B2 (dc) (BA) | G4 z4 | %27
w: tes- lui bon- ne|* chè- re: À|la bel- le ber\-|* gè- re.|M'en en-|trai en nos * jar\- *|dins|
 z4 z2 E2 | E2 E2 (EFGA | Bc d4) (c2- | c2 B2) (c2 BA) | G4 z4 | z8 | z8 | c3 B A2 A2 | %35
w: Pour|cueul- lir gi\- * * *|* * * ro\-|* * flé\- * *|e:|||Là trou- vai le|
 G3 F E2 G2 | F3 E D2 C2 | (E3 F) G2 G2 | c3 B A2 A2 | G3 F E2 G2 | F3 E D2 C2- | %41
w: mien a- mi, Qui|l'a- vait a- mas-|s\- * e. Et|la la la la|la la la Fai-|tes- lui bon- ne|
 C2 B,2 C2[Q:1/4=128] G2 |[Q:1/4=124] F3[Q:1/4=121] E[Q:1/4=119] D2[Q:1/4=116] C2 | %43
w: * chè- re, A|la bel- le ber-|
[Q:1/4=114] (C2[Q:1/4=111] B,2)[Q:1/4=110] !fermata!C4 |] %44
w: gè\- * re.|
V:2
 z8 | z2 C2 F3 F | E2 E2 C4 | z4 z4 | z4 z2 E2 | F3 E D2 C2- |[M:4/4] C2 B,2 C4 | z8 | z8 | %9
w: |Et la la|la la la,||Fai-|tes- lui bon- ne|* chè- re:|||
 z4 G2 G2 | F2 F2 G2 G2 | D2 D2 G2 G2 | F3 E G4 | E8 | E2 E2 F2 F2 | E3 F G2 E2 | D3 C A,3 B, | %17
w: Me le-|vai par un ma-|tin, La fraî- che|ma- ti- né-|e,|M'en en- trai en|nos jar- dins Pour|cueul- lir gi- ro-|
 C4 C4 | E3 E E2 E2 | E2 E2 C2 C2 | A,2 A,2 _B,2 A,2 | G,4 G,2 C2 | A,2 A,2 _B,2 A,2 | G,4 G,4 | %24
w: flé- e.|La la la la|la la la, Fai-|tes- lui bon- ne|chè- re: À|la bel- le ber-|gè- re.|
 z8 | G2 G2 F2 F2 | (GF) (ED) F2 F2 | (F2 ED) E2 G2 | G2 G2 (G3 F/E/ | D2 G2 (E2 DC) | D4 C3 D | %31
w: |M'en en- trai en|nos * jar\- * dins Pour|ceul\- * * lir, pour|cueul- lir gi\- * *|* ro- flé\- * *|e: cueul- lir|
 EF) E2 (FEDC) | B,4 z4 | z4 G3 F | E2 E2 D3 C | B,2 B,2 C2 E2 | (D3 C/B,/) A,2 A,2 | C8 | %38
w: gi\- * ro- flé\- * * *|e:|Là trou-|vai le mien a-|mi, Qui l'a- vait|a\- * * mas- sé-|e.|
 E3 E E2 E2 | E2 E2 C4 | A,2 A,2 _B,2 A,2 | G,4 G,2 C2 | A,2 A,2 _B,2 A,2 | G,4 !fermata!G,4 |] %44
w: La la la la|la la Fai-|tes- lui bon- ne|chè- re, A|la bel- le ber-|gè- re.|
V:3
 z8 | z8 | z4 z2 G2 | A3 G F2 E2 | D4 C4 | z8 |[M:4/4][K:treble-8] z8 | c2 c2 B2 B2 | c2 c2 G4 | %9
w: ||Fai-|tes- lui bon- ne|chè- re:|||Me le- vai par|un ma- tin,|
 z8 | z2 d2 (e2 dc) | B8 | c4 d4 | (c6- BA) | G4 d3 c | B2 B2 c2 c2 | A2 A2 A2 A2 | G2 G2 G4 | %18
w: |La fraî\- * *|che|ma- ti-|né\- * *|e, M'en en-|trai en nos jar-|dins Pour cueul- lir|gi- rou- flé-|
 G4 E3 F | G2 G2 G2 E2 | F2 F2 F2 E2 | D4 E2 E2 | F2 F2 F2 E2 | D4 C4- | C4 z4 | z8 | z4 c2 c2 | %27
w: e. La la|la la la, Fai-|tes- lui bon- ne|chè- re: À|la bel- le ber-|gè- re.|||M'en en-|
 B2 B2 c2 c2 | G2 G2 c2 c2 | B2 B2 (c2 BA) | G4 z4 | c3 B A2 A2 | GFE(D C4) | z2 c2 B2 B2 | %34
w: trai en nos jar-|dins Pour cueul- lir|gi- ro- flé\- * *|e:|Là trou- vai le|mien a- mi, Qui, *|Qui l'a- vait|
 (c2 de) f2 f2 | e2 e2 (edcB) | (A3 G A4) | G8- | G4 E3 F | G2 G2 G2 E2 | F2 F2 F2 E2 | D4 E2 E2 | %42
w: a\- * * mas- sé-|e, a- mas\- * * *|sé\- * *|e.|* La la|la la la Fai-|tes- lui bon- ne|chè- re, A|
 F2 F2 F2 E2 | D4 !fermata!C4 |] %44
w: la bel- le ber-|gè- re.|
V:4
 G,4 C3 B, | A,3 G, F,2 F,2 | C,8 | z8 | z4 z2 G,2 | A,3 G, F,2 E,2 |[M:4/4] D,4 C,4- | C,4 z4 | %8
w: Et la la|la la la la|la,||Fai-|tes- lui bon- ne|chè- re:||
 z4 G,2 G,2 | F,2 F,2 G,2 G,2 | D,4 z2 G,2 | G,2 G,2 G,2 G,2 | (A,4 G,4) | C,8 | C,2 C,2 D,2 D,2 | %15
w: Me le-|vai par un ma-|tin, La|fraî- che ma- ti-|né\- *|e,|M'en en- trai en|
 E,2 E,2 C,2 C,2 | D,3 E, F,2 F,2 | C,4 C,2 C,2 | C,3 C, C,2 C,2 | C,2 C,2 C,2 C,2 | %20
w: nos jar- dins Pour|cueul- lir gi- ro-|flé- e. Et|la la la a|la la la, Fai-|
 D,2 D,2 _B,,2 C,2 | G,,4 C,2 C,2 | D,3 C, _B,,2 C,2 | G,,4 C,4 | G,2 G,2 F,2 F,2 | %25
w: tes lui bon- ne|chè- re: À|la bel- le ber-|gè- re.|M'en en- trai en|
 G,2 G,2 D,2 D,2 | G,2 G,2 (F,E,) (D,C,) | D,4 C,4- | C,8 | z8 | z8 | z8 | z4 C3 B, | %33
w: nos j~ar- dins Pour|cueul- lir gi\- * ro\- *|flé- e:|||||Là trou-|
 A,2 A,2 (G,F,) (E,D,) | C,2 C,2 D,2 D,2 | E,2 E,2 (C,4 | D,3 E, F,4) | C,8 | C,3 C, C,2 C,2 | %39
w: vai le mien * a\- *|mi, Qui l'a- vait|a- mas- sé\-||e.|La la la la|
 C,2 C,2 C,2 C,2 | D,2 D,2 _B,,2 C,2 | G,,4 C,2 C,2 | D,3 C, _B,,2 C,2 | G,,4 !fermata!C,4 |] %44
w: la la la Fai-|tes- lui bon- ne|chè- re, A|la bel- le ber-|gè- re.|

